X: 1
T:BRANLE DU RAT
M:6/8
L:1/8
Q:120
C:trad. Bresse
R:polka pique
K:C
||:e3e3|dcB c2G|e3e3|dcB c3:|
|:ddd g2g|fed e2c|ddd g2g|fed c3:||
